src/lib/packages/icons/src/assets/filled/presentation.svg

<svg xmlns="http://www.w3.org/2000/svg" width="24" height="24" fill="none"><path fill="currentColor" d="M21.75 3a.75.75 0 0 1-.75.75h-1V13c0 2.29-1.21 3.5-3.5 3.5h-3.75v2.1l2.67 1.78a.751.751 0 0 1-.42 1.37.74.74 0 0 1-.42-.13L12 19.9l-2.58 1.72c-.35.23-.81.14-1.04-.2a.751.751 0 0 1 .2-1.04l2.67-1.78v-2.1H7.5C5.21 16.5 4 15.29 4 13V3.75H3a.75.75 0 0 1 0-1.5h18a.75.75 0 0 1 .75.75Z"/></svg>

<svg width="24" height="24" viewBox="0 0 24 24" fill="none" xmlns="http://www.w3.org/2000/svg">
<path d="M21.75 3C21.75 3.414 21.414 3.75 21 3.75H20V13C20 15.29 18.79 16.5 16.5 16.5H12.75V18.6L15.42 20.38C15.76 20.61 15.85 21.07 15.62 21.42C15.48 21.63 15.24 21.75 15 21.75C14.86 21.75 14.71 21.71 14.58 21.62L12 19.9L9.42 21.62C9.07 21.85 8.61 21.76 8.38 21.42C8.15 21.07 8.24 20.61 8.58 20.38L11.25 18.6V16.5H7.5C5.21 16.5 4 15.29 4 13V3.75H3C2.586 3.75 2.25 3.414 2.25 3C2.25 2.586 2.586 2.25 3 2.25H21C21.414 2.25 21.75 2.586 21.75 3Z" fill="currentColor"/>
</svg>
